X:2
T: Star of the County Down
C: Traditional
M: 4/4
R: Reel
L:1/4
N:Bonanzaville Jam
K:Am
[|E/2G/2|"AM"AA"F"AG/2A/2|"C"cc"G"dc/2d/2|"Am"ed/2c/2AG/2E/2|"Em"G2zE/2G/2|
"AM"AA"F"AG/2A/2|"C"cc"G"dc/2d/2|"Am"ed/2c/2AA/2G/2|A2ze/2e/2|
"C"geed/2c/2|"G"dddc/2d/2|"Am"ed/2c/2AG/2E/2|"Em"G2zE/2G/2|
"AM"AA"F"AG/2A/2|"C"cc"G"dc/2d/2|"Am"ed/2c/2AA/2G/2|A2z|]
